communes/5488.svg

<?xml version="1.0" encoding="UTF-8" standalone="no"?>
<svg
   xmlns:dc="http://purl.org/dc/elements/1.1/"
   xmlns:cc="http://creativecommons.org/ns#"
   xmlns:rdf="http://www.w3.org/1999/02/22-rdf-syntax-ns#"
   xmlns:svg="http://www.w3.org/2000/svg"
   xmlns="http://www.w3.org/2000/svg"
   xmlns:xlink="http://www.w3.org/1999/xlink"
   xmlns:sodipodi="http://sodipodi.sourceforge.net/DTD/sodipodi-0.dtd"
   xmlns:inkscape="http://www.inkscape.org/namespaces/inkscape"
   height="763"
   width="603"
   version="1.0"
   id="svg20"
   sodipodi:version="0.32"
   inkscape:version="0.46"
   sodipodi:docname="Mauraz-coat_of_arms.svg"
   sodipodi:docbase="C:\Documents and Settings\Steve\Bureau\Blason Villages Suisse pour Wikipédia (par Delta-9)"
   inkscape:output_extension="org.inkscape.output.svg.inkscape">
  <metadata
     id="metadata31">
    <rdf:RDF>
      <cc:Work
         rdf:about="">
        <dc:format>image/svg+xml</dc:format>
        <dc:type
           rdf:resource="http://purl.org/dc/dcmitype/StillImage" />
        <dc:date>07-AUG-2006</dc:date>
        <dc:creator>
          <cc:Agent>
            <dc:title>Jérôme BLUM (wagner51)</dc:title>
          </cc:Agent>
        </dc:creator>
        <cc:license
           rdf:resource="http://creativecommons.org/licenses/GPL/2.0/" />
        <dc:coverage />
        <dc:description>Gabarit pour le Projet:Blasons de WIkipédia</dc:description>
        <dc:subject>
          <rdf:Bag>
            <rdf:li>blason suisse modèle gabarit projet blasons</rdf:li>
          </rdf:Bag>
        </dc:subject>
        <dc:language>fr</dc:language>
        <dc:title>Gabrit d'un blason suisse</dc:title>
      </cc:Work>
      <cc:License
         rdf:about="http://creativecommons.org/licenses/GPL/2.0/">
        <cc:permits
           rdf:resource="http://web.resource.org/cc/Reproduction" />
        <cc:permits
           rdf:resource="http://web.resource.org/cc/Distribution" />
        <cc:requires
           rdf:resource="http://web.resource.org/cc/Notice" />
        <cc:permits
           rdf:resource="http://web.resource.org/cc/DerivativeWorks" />
        <cc:requires
           rdf:resource="http://web.resource.org/cc/ShareAlike" />
        <cc:requires
           rdf:resource="http://web.resource.org/cc/SourceCode" />
      </cc:License>
    </rdf:RDF>
  </metadata>
  <defs
     id="defs29"><inkscape:perspective
   sodipodi:type="inkscape:persp3d"
   inkscape:vp_x="0 : 381.5 : 1"
   inkscape:vp_y="0 : 1000 : 0"
   inkscape:vp_z="603 : 381.5 : 1"
   inkscape:persp3d-origin="301.5 : 254.33333 : 1"
   id="perspective28" />
<linearGradient
   id="linearGradient2893">
  <stop
     style="stop-color:#ffffff;stop-opacity:0.3137255;"
     offset="0"
     id="stop2895" />
  <stop
     id="stop2897"
     offset="0.19"
     style="stop-color:#ffffff;stop-opacity:0.25098041;" />
  <stop
     style="stop-color:#6b6b6b;stop-opacity:0.1254902;"
     offset="0.60000002"
     id="stop2901" />
  <stop
     style="stop-color:#000000;stop-opacity:0.1254902;"
     offset="1"
     id="stop2899" />
</linearGradient>
<linearGradient
   id="linearGradient2955">
  <stop
     style="stop-color:white;stop-opacity:0;"
     offset="0"
     id="stop2965" />
  <stop
     style="stop-color:black;stop-opacity:0.64583331;"
     offset="1"
     id="stop2959" />
</linearGradient>
<radialGradient
   inkscape:collect="always"
   xlink:href="#linearGradient2893"
   id="radialGradient3236"
   gradientUnits="userSpaceOnUse"
   gradientTransform="matrix(1.215027,1.531577e-24,1.464684e-23,1.266667,-839.1924,-490.4894)"
   cx="858.04236"
   cy="579.93323"
   fx="858.04236"
   fy="579.93323"
   r="300" />
<inkscape:perspective
   id="perspective2498"
   inkscape:persp3d-origin="297.63751 : 280.63 : 1"
   inkscape:vp_z="595.27502 : 420.94501 : 1"
   inkscape:vp_y="0 : 1000 : 0"
   inkscape:vp_x="0 : 420.94501 : 1"
   sodipodi:type="inkscape:persp3d" />

	
	
	
	
	
	
	
	
	
	
	
	
	
	
	
	

	
</defs>
  <sodipodi:namedview
     inkscape:window-height="968"
     inkscape:window-width="1280"
     inkscape:pageshadow="2"
     inkscape:pageopacity="0.0"
     guidetolerance="10.0"
     gridtolerance="10.0"
     objecttolerance="10.0"
     borderopacity="1.0"
     bordercolor="#666666"
     pagecolor="#ffffff"
     id="base"
     inkscape:zoom="0.97793387"
     inkscape:cx="294.43526"
     inkscape:cy="381.20837"
     inkscape:window-x="1280"
     inkscape:window-y="22"
     inkscape:current-layer="layer2"
     showgrid="false"
     showguides="true"
     inkscape:guide-bbox="true">
    <sodipodi:guide
       orientation="horizontal"
       position="761.5"
       id="guide1885" />
    <sodipodi:guide
       orientation="vertical"
       position="1.5"
       id="guide1887" />
    <sodipodi:guide
       orientation="horizontal"
       position="1.5"
       id="guide1889" />
    <sodipodi:guide
       orientation="vertical"
       position="601.5"
       id="guide1891" />
    <sodipodi:guide
       orientation="vertical"
       position="301.50081"
       id="guide1893" />
  </sodipodi:namedview>
  <desc
     id="desc22">Coat of Arms of Canton of Freiburg (Fribourg)</desc>
  <g
     inkscape:groupmode="layer"
     id="layer1"
     inkscape:label="Fond écu"
     style="opacity:1;display:inline"
     sodipodi:insensitive="true">
    <path
       d="M 1.5,1.5 L 1.5,460.369 C 1.5,626.68 135.814,761.5 301.5,761.5 C 467.186,761.5 601.5,626.68 601.5,460.369 L 601.5,1.5 L 1.5,1.5 z"
       id="path2505"
       style="opacity:1;fill:#2b5df2;display:inline" />
  </g>
  <g
     inkscape:groupmode="layer"
     id="layer2"
     inkscape:label="Meubles"
     style="opacity:1;display:inline"
     sodipodi:insensitive="true">
    <g
       id="g2574">
      <path
         style="fill:#ffffff"
         d="M 481.498,251.188 L 481.498,334.418 L 361.497,334.418 L 361.497,251.188 L 241.499,251.188 L 241.499,334.418 L 121.499,334.418 L 121.499,251.188 L 1.5,251.188 L 1.5,460.369 C 1.5,474.108 2.436,487.626 4.21,500.877 L 598.788,500.877 C 600.563,487.626 601.499,474.108 601.499,460.369 L 601.499,251.188 L 481.498,251.188 z"
         id="path2474" />
      <line
         style="fill:none;stroke:#000000;stroke-width:3"
         id="line2495"
         x1="241.49901"
         y1="334.418"
         x2="361.49701"
         y2="334.418" />
      <line
         style="fill:none;stroke:#000000;stroke-width:3"
         id="line2497"
         x1="601.49799"
         y1="334.418"
         x2="481.49799"
         y2="334.418" />
      <line
         style="fill:none;stroke:#000000;stroke-width:3"
         id="line2499"
         x1="121.5"
         y1="334.418"
         x2="1.4999977"
         y2="334.418" />
      <line
         style="fill:none;stroke:#000000;stroke-width:3"
         id="line2501"
         x1="601.49799"
         y1="417.64697"
         x2="1.4999977"
         y2="417.64697" />
      <line
         style="fill:none;stroke:#000000;stroke-width:3"
         id="line2503"
         x1="481.49799"
         y1="417.64697"
         x2="481.49799"
         y2="500.87598" />
      <line
         style="fill:none;stroke:#000000;stroke-width:3"
         id="line2505"
         x1="361.49701"
         y1="417.64697"
         x2="361.49701"
         y2="500.87598" />
      <line
         style="fill:none;stroke:#000000;stroke-width:3"
         id="line2507"
         x1="241.49901"
         y1="417.64697"
         x2="241.49901"
         y2="500.87598" />
      <line
         style="fill:none;stroke:#000000;stroke-width:3"
         id="line2509"
         x1="121.5"
         y1="417.64697"
         x2="121.5"
         y2="500.87598" />
      <line
         style="fill:none;stroke:#000000;stroke-width:3"
         id="line2511"
         x1="61.499996"
         y1="334.418"
         x2="61.499996"
         y2="417.64697" />
      <line
         style="fill:none;stroke:#000000;stroke-width:3"
         id="line2513"
         x1="181.49901"
         y1="334.418"
         x2="181.49901"
         y2="417.64697" />
      <line
         style="fill:none;stroke:#000000;stroke-width:3"
         id="line2515"
         x1="301.49701"
         y1="334.418"
         x2="301.49701"
         y2="417.64697" />
      <line
         style="fill:none;stroke:#000000;stroke-width:3"
         id="line2517"
         x1="421.49698"
         y1="334.418"
         x2="421.49698"
         y2="417.64697" />
      <line
         style="fill:none;stroke:#000000;stroke-width:3"
         id="line2519"
         x1="541.49799"
         y1="334.418"
         x2="541.49799"
         y2="417.64697" />
      <path
         style="fill:none;stroke:#000000;stroke-width:3"
         d="M 4.21,500.876 L 598.788,500.876"
         id="path2489" />
      <polyline
         transform="translate(-3.8e-2,-4.5e-2)"
         style="fill:none;stroke:#000000;stroke-width:3"
         points="601.537,251.233 481.536,251.233 481.536,334.463    361.535,334.463 361.535,251.233 241.537,251.233 241.537,334.463 121.537,334.463 121.537,251.233 1.538,251.233  "
         id="polyline2491" />
    </g>
  </g>
  <g
     inkscape:groupmode="layer"
     id="layer3"
     inkscape:label="Reflet final"
     style="display:inline"
     sodipodi:insensitive="true">
    <path
       style="fill:url(#radialGradient3236);fill-opacity:1"
       d="M 1.5,1.5 L 1.5,460.3679 C 1.5,626.67854 135.81454,761.5 301.49993,761.5 C 467.1854,761.5 601.5,626.67854 601.5,460.3679 L 601.5,1.5 L 1.5,1.5 z"
       id="path2346" />
  </g>
  <g
     inkscape:groupmode="layer"
     id="layer4"
     inkscape:label="Contour final"
     style="display:inline"
     sodipodi:insensitive="true">
    <path
       style="fill:none;fill-opacity:1;stroke:#000000;stroke-width:3;stroke-miterlimit:4;stroke-dasharray:none;stroke-opacity:1"
       d="M 1.5,1.5 L 1.5,460.36794 C 1.5,626.67854 135.81454,761.5 301.49993,761.5 C 467.1854,761.5 601.5,626.67854 601.5,460.36794 L 601.5,1.5 L 1.5,1.5 z"
       id="path3239" />
  </g>
</svg>

<?xml version="1.0" encoding="UTF-8"?>
<svg version="1.0" viewBox="0 0 603 763" xmlns="http://www.w3.org/2000/svg" xmlns:cc="http://creativecommons.org/ns#" xmlns:dc="http://purl.org/dc/elements/1.1/" xmlns:rdf="http://www.w3.org/1999/02/22-rdf-syntax-ns#" xmlns:xlink="http://www.w3.org/1999/xlink">
<metadata>
<rdf:RDF>
<cc:Work rdf:about="">
<dc:format>image/svg+xml</dc:format>
<dc:type rdf:resource="http://purl.org/dc/dcmitype/StillImage"/>
<dc:date>07-AUG-2006</dc:date>
<dc:creator>
<cc:Agent>
<dc:title>Jérôme BLUM (wagner51)</dc:title>
</cc:Agent>
</dc:creator>
<cc:license rdf:resource="http://creativecommons.org/licenses/GPL/2.0/"/>
<dc:coverage/>
<dc:description>Gabarit pour le Projet:Blasons de WIkipédia</dc:description>
<dc:subject>
<rdf:Bag>
<rdf:li>blason suisse modèle gabarit projet blasons</rdf:li>
</rdf:Bag>
</dc:subject>
<dc:language>fr</dc:language>
<dc:title>Gabrit d'un blason suisse</dc:title>
</cc:Work>
<cc:License rdf:about="http://creativecommons.org/licenses/GPL/2.0/">
<cc:permits rdf:resource="http://web.resource.org/cc/Reproduction"/>
<cc:permits rdf:resource="http://web.resource.org/cc/Distribution"/>
<cc:requires rdf:resource="http://web.resource.org/cc/Notice"/>
<cc:permits rdf:resource="http://web.resource.org/cc/DerivativeWorks"/>
<cc:requires rdf:resource="http://web.resource.org/cc/ShareAlike"/>
<cc:requires rdf:resource="http://web.resource.org/cc/SourceCode"/>
</cc:License>
</rdf:RDF>
</metadata>
<defs>
<radialGradient id="a" cx="858.04" cy="579.93" r="300" gradientTransform="matrix(1.215 1.5316e-24 1.4647e-23 1.2667 -839.19 -490.49)" gradientUnits="userSpaceOnUse">
<stop stop-color="#fff" stop-opacity=".31373" offset="0"/>
<stop stop-color="#fff" stop-opacity=".25098" offset=".19"/>
<stop stop-color="#6b6b6b" stop-opacity=".12549" offset=".6"/>
<stop stop-opacity=".12549" offset="1"/>
</radialGradient>
</defs>
<desc>Coat of Arms of Canton of Freiburg (Fribourg)</desc>
<g>
<path d="m1.5 1.5v458.87c0 166.31 134.31 301.13 300 301.13s300-134.82 300-301.13v-458.87h-600z" fill="#2b5df2"/>
<path d="m481.5 251.19v83.23h-120v-83.23h-120v83.23h-120v-83.23h-120v209.18c0 13.739 0.936 27.257 2.71 40.508h594.58c1.775-13.251 2.711-26.769 2.711-40.508v-209.18h-120z" fill="#fff"/>
<line x1="241.5" x2="361.5" y1="334.42" y2="334.42" fill="none" stroke="#000" stroke-width="3"/>
<line x1="601.5" x2="481.5" y1="334.42" y2="334.42" fill="none" stroke="#000" stroke-width="3"/>
<line x1="121.5" x2="1.5" y1="334.42" y2="334.42" fill="none" stroke="#000" stroke-width="3"/>
<line x1="601.5" x2="1.5" y1="417.65" y2="417.65" fill="none" stroke="#000" stroke-width="3"/>
<line x1="481.5" x2="481.5" y1="417.65" y2="500.88" fill="none" stroke="#000" stroke-width="3"/>
<line x1="361.5" x2="361.5" y1="417.65" y2="500.88" fill="none" stroke="#000" stroke-width="3"/>
<line x1="241.5" x2="241.5" y1="417.65" y2="500.88" fill="none" stroke="#000" stroke-width="3"/>
<line x1="121.5" x2="121.5" y1="417.65" y2="500.88" fill="none" stroke="#000" stroke-width="3"/>
<line x1="61.5" x2="61.5" y1="334.42" y2="417.65" fill="none" stroke="#000" stroke-width="3"/>
<line x1="181.5" x2="181.5" y1="334.42" y2="417.65" fill="none" stroke="#000" stroke-width="3"/>
<line x1="301.5" x2="301.5" y1="334.42" y2="417.65" fill="none" stroke="#000" stroke-width="3"/>
<line x1="421.5" x2="421.5" y1="334.42" y2="417.65" fill="none" stroke="#000" stroke-width="3"/>
<line x1="541.5" x2="541.5" y1="334.42" y2="417.65" fill="none" stroke="#000" stroke-width="3"/>
<path d="m4.21 500.88h594.58" fill="none" stroke="#000" stroke-width="3"/>
<polyline transform="translate(-.038 -.045)" points="601.54 251.23 481.54 251.23 481.54 334.46 361.54 334.46 361.54 251.23 241.54 251.23 241.54 334.46 121.54 334.46 121.54 251.23 1.538 251.23" fill="none" stroke="#000" stroke-width="3"/>
</g>
<g>
<path d="m1.5 1.5v458.87c0 166.31 134.31 301.13 300 301.13 165.69 0 300-134.82 300-301.13v-458.87h-600z" fill="url(#a)"/>
<path d="m1.5 1.5v458.87c0 166.31 134.31 301.13 300 301.13 165.69 0 300-134.82 300-301.13v-458.87h-600z" fill="none" stroke="#000" stroke-width="3"/>
</g>
</svg>
